X:1
T:Kein grösser pein
T:Melchior Franck
T:Source : Tricinia nova---Nürnberg---A.Wagenmann---1611. Editor : André Vierendeels (15/04/17).
T:Notes : Original clefs : G2, C1, C4 (notated as F4 inoriginal print) Editorial accidentals above the staff Original note values have been halved in 3-beat measures Dotted brackets indicate black notes m 43 in S 2 : "G" notated as "F" in original print Text in Middle German
T:Kein grösser pein
T:©
T:©
T:©
T:©
T:©
T:©
C:Melchior Franck
Z:©
%%score [ 1 2 3 ]
L:1/8
Q:1/4=120
M:2/2
K:C
V:1 treble nm="Soprano 1" snm="S 1"
V:2 treble nm="Soprano 2" snm="S 2"
V:3 treble-8 nm="Tenor" snm="T"
V:1
 z8 | z8 |"^1)" z8 | A8 | d8- | d4 c4 | _B8 | A4 d4- | d4 ^c4 | d4 d4 | a8- | a4 g4 | f4 e4 | %13
w: |||Kein|grös-|* ser|pein|auff di-|* ser|Welt, kein|grös-|* ser|pein auff|
w: |||Es|ist|_ kein|kranck-|heit al-|* so|grosz, kein|kranck-||* heit|
 d2 e2 f4- | f4 e4 | f4 f4 | e4 g2 f2- | f2 f2 e4 | d8 | z8 | z8 | z8 | A8 | d8- | d4 c4 | _B8 | %26
w: di- * *|* ser|Welt, glaub|ich, wirdt nit|_ ge- fun-|den,||||als|die|_ so|von|
w: al- * *|* so|grosz, kein|bre- sten al-|* so schwe-|re,||||dem|nit|_ zu|re-|
 A4 d4- | d4 ^c4 | d4 d4 | a8- | a4 g4 | f4 e4 | d2 e2 f4- | f4 e4 | f4 f4 | e4 g2 f2- | f2 f2 e4 | %37
w: der Lieb|_ ein-|fellt, als|die|_ so|von der|Lieb _ _|_ ein-|fellt, zu|un- glück- haff-|* ten stun-|
w: chter zeit|_ mit|masz, dem|nit|_ zu|re- chter|zeit _ _|_ mit|masz, durch|art- zen z'hel-|* ffen we-|
[M:2/4] !fermata!d4 |: f4 |[M:2/2] e4 d4 | c4 d4 | c4 _B4 | A4 z4 | z2 A2 c2 d2 | e2 c2 B4 | ^c8 | %46
w: den:|All|pein und|schmertz, an|Leib und|Hertz,|wirdt durch die|zeit ver- zeh-|ret,|
w: re;|Desz|Buh- lers|noth, al-|lein der|Tod,|und sonst gar|nichts thut en-|den,|
[M:3/2] d4 d4 d4 | e6 g2 g4 | e4 d6 f2 | e4 d4 c4 | A4 B8 | ^c8 e4 | e6 e2 a4 | f4 e8 | d12 :| %55
w: a- ber dein|pein, O A-|mor klein, sich|all- zeit heufft|und meh-|ret, kein|gwalt ist der|das meh-|ret.|
w: O A- mor|klein, dein schmertz|und pein, lest|sich so leicht|nit wen-|den, we-|der mi rath|noch hän-|den.|
V:2
"^1)" D8 | A8- |"^2)" A4 G4 | F4 E4 | F4 G4 | A4 E2 F2 | G2 D2 G4- | G4 F4 | E4 E4 | A4 G4 | F8- | %11
w: Kein|grös-|* ser|pein auff|di- *|||* ser|Welt, auff|di- *||
w: Des|Men-|* schen|ver- nunfft|und _|_ _ _||* ver-|stand, ver-|nunfft _|und|
 F4 G4 | A4 A4 | d4 c4 | _B4 B4 | A4 c4 | G4 D2 A2- | A2 B2 ^c4 | d8 | D8 | A8- | A4 G4 | F4 E4 | %23
w: * ser|Welt, auff|di- *|* ser|Welt, glaub|ich, wirdt nit|_ ge- fun-|den,|als|die|_ so|von der|
w: _ ver-|stand, ver-|* nunfft|und ver-|stand, sigt|ob sonst al-|* len din-|gen,|kein|zorn|_ so|grosz, den|
 F4 G4 | A4 E2 F2 | G2 D2 G4- | G4 F4 | E4 E4 | A4 G4 | F8- | F4 G4 | A4 A4 | d4 c4 | _B4 B4 | %34
w: Lieb _|_ _ _||* ein-|fellt, so|von der|Lieb|_ ein-|fellt, so|von der|Lieb ein-|
w: nicht _|_ _ _||* zu|hand, so|grosz, den|nicht|_ zu|hand, en|nicht zu|hand die|
 A4 c4 | G4 D2 A2- | A2 B2 ^c4 |[M:2/4] !fermata!d4 |: z2 _B2- |[M:2/2] B2 A4 G2 | A2 A4 G2- | %41
w: fellt, zu|un- glück- haff-|* ten stun-|den:|All|_ pein und|schmertz, an Leib|
w: zeit bald|thut be- zwin-||gen:|A-|* ber die|Lieb, sich al-|
 GF F4 E2 | F2 G2 A2 B2 | c4 A4 | ^G2 A4 G2 | A8 |[M:3/2] B4 A4 B4 | c6 e2 d4 | c4 B6 A2 | %49
w: _ _ _ und|Hertz, wirdt durch die|zeit ver-|zeh- * *|ret,|a- ber dein|pein, O A-|mor klein, sich|
w: * * * zeit|übt, lest sich nit|leicht- lich|dem- * *|men,|A- mor, dein|gwalt, ist nit|so bald, zu|
 A4 F4 E4 | A4 ^G8 | A8 c4 | B6 c2 A4 | d4 ^c8 | d12 :| %55
w: all- zeit heufft|und meh-|ret, kein|gwalt ist der|das meh-|ret.|
w: zwin- gen und|zu zäh-|men, thut|ü- ber hand|stets ne-|men.|
V:3
"^3)" z8 |"^1)" A8 | d8- | d4 c4 | _B8 | A8 | G4 G4 | D4 D4 | A6 G2 | ^F4 G4 | D4 D4 | d8- | %12
w: |Kein|grös-|* ser|pein|auff|di- ser|Welt, auff|di- *|* ser|Welt, kein|grös-|
 d4 c4 | _B4 A4 | G4 G4 | F4 A4 | c4 B2 d2- | d2 D2 A4 | D8 | z8 | A8 | d8- | d4 c4 | _B8 | A8 | %25
w: ser pein|auff di-|* ser|Welt, glaub|ich, wirdt nit|_ ge- fun-|den,||als|die|_ so|von|der|
 G4 G4 | D4 D4 | A6 G2 | ^F4 G4 | D4 D4 | d8- | d4 c4 | _B4 A4 | G4 G4 | F4 A4 | c4 B2 d2- | %36
w: Lieb ein-|fellt, der|Lieb _|_ ein-|fellt, als|die|_ so|von der|Lieb ein-|fellt, zu|un- glück- haff-|
 d2 D2 A4 |[M:2/4] !fermata!D4 |: d4 |[M:2/2] c4 _B4 | A4 _B4 | A4 G4 | A2 E2 F2 G2 | A4 F4 | E8 | %45
w: * ten stun-|den:|All|pein und|schmertz, an|Leib und|Hertz, wirdt durchl die|zeit ver-|zeh-|
 A8 |[M:3/2] G4 ^F4 G4 | C6 c2 B4 | c4 G6 d2 | ^c4 d4 A4 | f4 e8 | A8 A4 | ^G6 A2 F4 | D4 A8 | %54
w: ret,|a- ber dein|pein, O A-|mor klein, sich|all- zeit heuff|und meh-|ret, kein|gwalt ist der|das meh-|
 D12 :| %55
w: ret.|

